X:1
T:Come Ye Lofty
T:Come Ye Lofty
T:Courtesy of the Cyber Hymnal (http://www.cyberhymnal.org)
T:Courtesy of the Cyber Hymnal (http://www.cyberhymnal.org)
Z:Courtesy of the Cyber Hymnal (http://www.cyberhymnal.org)
%%score { ( 1 2 ) ( 3 4 ) }
L:1/8
Q:1/4=115
M:4/4
K:D
V:1 treble nm="P1"
V:2 treble 
V:3 bass nm="P2"
V:4 bass 
V:1
"^Editor: John Henry Fowler""^( Revision: 11-30-2007 )" D3 D G2 F2 | D3 D B2 A2 | d3 d c2 B2 | %3
 A2 F2"^( 1871 )" (F2 E2) | D3 D G2 F2 | D3 D B2 A2 | %6
 d3"^George Job Elvey" d d2"^( 1816 - 1893 )" c2 | B2 ^A2 B4 | B3 B B2 A2 | d3 d d2 c2 | %10
 d3 d c2 B2 | A2 ^G2 A4 | G3 G G2 F2 | =c3 c c2 B2 | e3 d c2 d2 | F2 E2 D4 |] %16
V:2
 D3 D D2 D2 | D3 D D2 D2 | D3 D E2 E2 | A,2 D2 D2 C2 | D3 D D2 D2 | D3 D D2 D2 | D3 D G2 G2 | %7
 F2 F2 F4 | G3 G G2 F2 | F3 F F2 F2 | F3 E E2 F2 | E2 E2 E4 | D2 D2 D2 D2 | =C2 D2 D2 D2 | %14
 G2 G2 E2 D2 | D2 C2 D4 |] %16
V:3
 D,3 D, B,2 B,2 | D,3 D, G,2 F,2 | [B,,B,]3 [B,,B,] [C,A,]2 [C,G,]2 | F,2 A,2 A,4 | %4
 D,3 D, B,2 A,2 | D,3 D, G,2 F,2 | B,3 B, B,2 E2 | D2 C2 D4 | %8
"^1:  Come, ye lofty, come, ye lowly,Let your songs of gladness ring;In a stable lies the Holy,In a manger rests the King:See in Mary’s arms reposingChrist by highest Heav’n adored:Come, your circle round Him closing,Pious hearts that love the Lord.2:  Come ye poor, no pomp of stationRobes the Child your hearts adore;He, the Lord of all salvation,Shares your want, is weak and poor:Oxen, round about behold them;Rafters naked, cold, and bare,See the shepherds, God has told themThat the Prince of Life lies there." D3 D D2 D2 | %9
 D2"^Lyrics: Archer T. Gueney   in Christmas Carols New and Old, by Henry R. Bramley and John Stainer (London: Novello, Ewer & Co., 1871)," B,2 B,2"^5:  Hark the Heav’n of heav’ns is ringing:Christ the Lord to man is born!Are not all our hearts, too, singing,Welcome, welcome, Christmas morn?Still the Child, all power possessing,Smiles as through the ages past;And the song of Christmas blessingSweetly sinks to rest at last." ^A,2 | %10
 B,2 B,2 A,2 D2 | C2 B,2 C4 | %12
 B,2"^3:  Come, ye children, blithe and merry,This one Child your model make;Christmas holly, leaf, and berry,All be prized for His dear sake:Come ye gentle hearts and tender,Come ye spirits keen and bold;All in all your homage render,Weak and mighty, young and old.4:  High above a star is shining,And the wise men haste from far:Come, glad hearts, and spirits pining—For you all has ris’n the star.Let us bring our poor oblations,Thanks and love, and faith and praise;Come, ye people, come, ye nations,All in all draw nigh to gaze." A,2 A,2 A,2 | %13
 G,2 A,2 G,2 G,2 | B,2 B,2 A,2 (A,B,) | A,3 G, F,4 |] %16
V:4
 D,3 D, D,2 D,2 | D,3 D, D,2 D,2 | x8 | D,2 F,2 A,4 | D,3 D, D,2 D,2 | D,3 D, D,2 D,2 | %6
 B,,3 B,, E,2 E,2 | D,2 F,2 B,,4 | G,,3 B,, D,2 D,2 | B,,2 D,2 F,2 F,2 | B,2 ^G,2 A,2 D,2 | %11
 D,2 E,2 A,,4 | B,,2 C,2 D,2 D,2 | E,2 F,2 G,2 G,2 | E,2 G,2 A,2 F,G, | A,2 A,,2 D,4 |] %16

